X: 20664
T: John Walsh's
R: polka
M: 2/4
K: Gmajor
G>A BA|GE ED|BD ED|BD ED|
G>A BA|GE ED|BD ED|~G3 z:|
ga/g/ fg|ag ge|dB BA|GA Bd|
ga/g/ fg|ag ge|dB AB/A/|G2 G2:|

